X: 588
T: Achonry Lasses, The
R: reel
M: 4/4
K: Gmajor
GBAF DEFA|d2cA BGAF|GBAF DEFA|(3dcB cA BGAF|
GBAF DEFA|d2cA BGAF|GBAG FGAc|cBcA BGBd||
g2ag fddf|eccB cdef|g2ag fddB|cedc BGBd|
g2ag fddf|eccB cdef|gaag fafd|cedc BGAF||

